X:402
T:Yarborough Chase
R:jig 32
M:6/8
L:1/8
Q:140
C:Peter Kerrawn, Sydney Morris men
K:G
D3 |: G2G GAB | c2c cBA | G2G GAB | A2F D3| G2G GAB | c2c cBA | GAG FEF
|  G6 :| :
A2 | B2B BAG | A2 A A3 | G2G GAB | A2F D3 | B2B BAG | A2A  A3 | GAG FEF
| G6 :|

